!!!COM: Palestrina, Giovanni Perluigi da
!!!OPR: Dum complerentur
!!!OTL: Kyrie II
**kern	**kern	**kern	**kern	**kern	**kern
*Ibass	*Itenor	*Itenor	*Icalto	*Icalto	*Icant
!Bassus	!Tenor 2	!Tenor 1	!Altus 2	!Altus 1	!Cantus
*clefF4	*clefGv2	*clefGv2	*clefG2	*clefG2	*clefG2
*k[b-]	*k[b-]	*k[b-]	*k[b-]	*k[b-]	*k[b-]
*F:ion	*F:ion	*F:ion	*F:ion	*F:ion	*F:ion
*M4/2	*M4/2	*M4/2	*M4/2	*M4/2	*M4/2
=1	=1	=1	=1	=1	=1
1r	1c	0r	0r	0r	0r
1F	[1f	.	.	.	.
=2	=2	=2	=2	=2	=2
2A	2f]	0r	0r	1r	0r
2B-	2d	.	.	.	.
1c	[1e	.	.	1g	.
=3	=3	=3	=3	=3	=3
0A	1e]	1c	0r	1.cc	0r
.	1c	2e	.	.	.
.	.	2f	.	2a	.
=4	=4	=4	=4	=4	=4
1G	2d	1g	0r	1b-	0r
.	2.g	.	.	.	.
2.c	.	[1e	.	2g	.
.	4f	.	.	.	.
.	4e	.	.	[2cc	.
4B-	4d	.	.	.	.
=5	=5	=5	=5	=5	=5
4A	2.c	2e]	1r	4cc]	1cc
4G	.	.	.	4b-	.
2A	.	2c	.	4a	.
.	4B-	.	.	4g	.
2.F	1A	1c	1f	[1a	[1ff
4E	.	.	.	.	.
=6	=6	=6	=6	=6	=6
1D	1d	1r	2a	2a]	2ff]
.	.	.	2b-	2f	2dd
1C	1G	2r	1cc	1g	1ee
.	.	2c	.	.	.
=7	=7	=7	=7	=7	=7
0r	2r	1.f	2.a	0r	2.cc
.	2F	.	.	.	.
.	.	.	4b-	.	4b-
.	2A	.	2cc	.	2a
.	2B-	2d	4b-	.	2dd
.	.	.	4a	.	.
=8	=8	=8	=8	=8	=8
0r	1c	1e	1g	2r	2cc
.	.	.	.	2c	2g
.	1A	1c	1cc	2e	2a
.	.	.	.	2f	[2cc
=9	=9	=9	=9	=9	=9
1r	1G	1d	2r	1g	2cc]
.	.	.	2.g	.	2b
2r	1c	1c	.	2e	1cc
.	.	.	4e	.	.
2F	.	.	2f	2a	.
=10	=10	=10	=10	=10	=10
1.B-	0r	2r	1d	2g	2r
.	.	2B-	.	2.f	2f
.	.	2d	1B-	.	1b-
.	.	.	.	4d	.
2G	.	2e	.	2g	.
=11	=11	=11	=11	=11	=11
2A	0r	1f	2r	2c	2a
2.B-	.	.	2f	2.d	2.dd
.	.	[1d	[1b-	.	.
4A	.	.	.	4e	4cc
4G	.	.	.	[2f	4b-
4F	.	.	.	.	4a
=12	=12	=12	=12	=12	=12
1G	1r	2d]	2b-]	2f]	1b-
.	.	2B-	2g	2e	.
2.F	2r	2c	1a	1f	1r
.	2c	2A	.	.	.
4E	.	.	.	.	.
=13	=13	=13	=13	=13	=13
1.D	1.f	2A	2f	1.a	2r
.	.	2A	2d	.	2f
.	.	1d	2f	.	2a
2G	2d	.	[2g	2g	2b
=14	=14	=14	=14	=14	=14
0C	2e	2c	2g]	2e	0cc
.	2.c	2A	1f	2f	.
.	.	1G	.	1g	.
.	4B-	.	.	.	.
.	2G	.	2e	.	.
=15	=15	=15	=15	=15	=15
2r	2A	2F	[0f	1c	1a
1F	1c	1A	.	.	.
.	.	.	.	1r	1r
2BB-	2d	2B-	.	.	.
=16	=16	=16	=16	=16	=16
1F	1c	2.A	0f]	0r	2r
.	.	.	.	.	1cc
.	.	4B-	.	.	.
1r	2A	2c	.	.	.
.	2B-	[2B-	.	.	2dd
=17	=17	=17	=17	=17	=17
0r	1F	2B-]	0r	1.f	1cc
.	.	2A	.	.	.
.	1r	2d	.	.	2a
.	.	2G	.	2g	[2b-
=18	=18	=18	=18	=18	=18
0r	0r	2.d	1r	1f	2b-]
.	.	.	.	.	2a
.	.	4c	.	.	.
.	.	2B-	2r	2d	1g
.	.	[2c	[2g	[2e	.
=19	=19	=19	=19	=19	=19
0r	1r	2c]	2g]	2e]	2.cc
.	.	2F	2a	2f	.
.	.	.	.	.	4cc
.	2r	1G	1g	2d	4b
.	.	.	.	.	4cc
.	2G	.	.	[2g	4dd
.	.	.	.	.	4b
=20	=20	=20	=20	=20	=20
0r	2c	0r	2e	4g]	2cc
.	.	.	.	4a	.
.	1B-	.	1f	2.b-	1dd
.	.	.	.	4a	.
.	2c	.	2e	4g	[2cc
.	.	.	.	4f	.
=21	=21	=21	=21	=21	=21
1r	1G	2r	1d	1g	2cc]
.	.	1g	.	.	2b
2r	2.c	.	2c	1e	1cc
[2c	.	2a	[2cc	.	.
.	4d	.	.	.	.
=22	=22	=22	=22	=22	=22
2c]	2e	2g	2cc]	1r	1r
2d	2f	1f	2b	.	.
1c	1g	.	1cc	2r	2r
.	.	2e	.	2g	[2cc
=23	=23	=23	=23	=23	=23
2A	2f	2.f	0r	2a	2cc]
1B-	2.d	.	.	2f	2dd
.	.	4e	.	.	.
.	.	2d	.	2g	2b-
.	4B-	.	.	.	.
2A	[2f	2c	.	2a	2cc
=24	=24	=24	=24	=24	=24
1G	2f]	1B-	1g	2.b-	2dd
.	2e	.	.	.	2b-
.	.	.	.	8a	.
.	.	.	.	8g	.
1F	1f	2r	1a	[1cc	4a
.	.	.	.	.	4b-
.	.	[2c	.	.	4cc
.	.	.	.	.	4dd
=25	=25	=25	=25	=25	=25
0r	1r	2c]	2g	2cc]	4ee
.	.	.	.	.	4cc
.	.	2d	2f	2b	1ff
.	2r	1c	1g	1cc	.
.	[2c	.	.	.	2ee
=26	=26	=26	=26	=26	=26
0r	2c]	2A	0f	0r	2.ff
.	2d	1B-	.	.	.
.	.	.	.	.	4ee
.	2B-	.	.	.	2dd
.	2c	2A	.	.	[2cc
=27	=27	=27	=27	=27	=27
0r	1d	1G	2.g	2r	2cc]
.	.	.	.	1g	2b
.	.	.	4f	.	.
.	1r	2c	2e	.	1cc
.	.	2F	2f	2a	.
=28	=28	=28	=28	=28	=28
0r	2r	4c	1e	1g	1cc
.	.	4d	.	.	.
.	1c	4e	.	.	.
.	.	4f	.	.	.
.	.	2g	1r	2e	2cc
.	2d	2f	.	2f	2b
=29	=29	=29	=29	=29	=29
2r	1c	2e	2r	2g	1cc
1F	.	2c	1cc	1f	.
.	2A	1d	.	.	1r
2G	2B-	.	2b-	2d	.
=30	=30	=30	=30	=30	=30
1F	2c	2r	2.a	1f	0r
.	2A	2c	.	.	.
.	.	.	4g	.	.
2D	2.B-	2d	2f	1r	.
[2E-	.	2G	[2g	.	.
.	4c	.	.	.	.
=31	=31	=31	=31	=31	=31
2E-]	4B-	1B-	2g]	1r	1r
.	4A	.	.	.	.
2D	4G	.	1f	.	.
.	4F	.	.	.	.
1C	1G	1c	.	1g	2r
.	.	.	2e	.	[2cc
=32	=32	=32	=32	=32	=32
1F	[0F	1A	[0f	2a	2cc]
.	.	.	.	2f	2dd
2r	.	2r	.	2.a	1cc
2F	.	[2c	.	.	.
.	.	.	.	4b-	.
=33	=33	=33	=33	=33	=33
2F	0F]	2c]	0f]	2cc	2a
2BB-	.	2d	.	2b-	2b-
1F	.	2c	.	4a	1cc
.	.	.	.	4g	.
.	.	2A	.	4f	.
.	.	.	.	4e	.
=34	=34	=34	=34	=34	=34
0BB-	[0F	0B-	[0f	2d	0dd
.	.	.	.	2B-	.
.	.	.	.	1b-	.
=35	=35	=35	=35	=35	=35
0F	0F]	0c	0f]	0a	0cc
==	==	==	==	==	==
*-	*-	*-	*-	*-	*-
!!!CDT: 1525/^1526/-1594/2/2
!!!OCY: Italia
!!!AGN: Mass (Parody)
!!!AST: renaissance, vocal
!!!ASW: Motet 1569 (Palestrina)
!!!PWK: Masses, Book 8
!!!RNB: Cadence finals: C
!!!YOR: Le Opere Complete, v. 24, p. 117
!!!YOO: Rome, Italy: Fratelli Scalera
!!!END: 1992//
!!!EED: John Miller
!!!YEC: Copyright 2000, John Miller
!!!YEN: United States of America
!!!YEM: Rights to all derivative electronic formats reserved.
!!!YEM: Refer to licensing agreement for further details.
!!!YEM: This file must be accompanied by the licensing agreement.
!!!YEM: A copy of the licensing agreement may be found at http://www.music-cog.ohio-state.edu/HumdrumDatabases/Palestrina/license.txt
!!!EMD: converted to Humdrum by Bret Aarden
